X: 23499
T: Liam Archie
R: reel
M: 4/4
K: Adorian
(3EFG||ABcd efge|d2gd AG~G2|ABcd efge|dBGD BA~A2|
ABcd efge|d2gd AG~G2|ABcd efge|dBGA Ba~a2||
aeed cdeg|dBBA Ge~e2|aeed cdeg|df~f2 ~g2fg|
aeed cdeg|dBBA GE~E2|ABcd ~e2ge|dBGD BA~A2||
c2AB c2A2|BGDG BG~G2|cA~A2 cdef|gfeg ~a3z|
c2AB c3A|BGDG BG~G2|AcB/c/d cedg|eagb a2||

